actions/24/exchange-positions-clockwise.svg

<?xml version="1.0" encoding="UTF-8" standalone="no"?>
<svg
   width="24"
   height="24"
   viewBox="0 0 24 24"
   version="1.1"
   id="svg7"
   sodipodi:docname="exchange-positions-clockwise.svg"
   inkscape:version="1.1.2 (0a00cf5339, 2022-02-04)"
   xmlns:inkscape="http://www.inkscape.org/namespaces/inkscape"
   xmlns:sodipodi="http://sodipodi.sourceforge.net/DTD/sodipodi-0.dtd"
   xmlns="http://www.w3.org/2000/svg"
   xmlns:svg="http://www.w3.org/2000/svg">
  <sodipodi:namedview
     id="namedview9"
     pagecolor="#000000"
     bordercolor="#666666"
     borderopacity="1.0"
     inkscape:pageshadow="2"
     inkscape:pageopacity="0"
     inkscape:pagecheckerboard="0"
     showgrid="false"
     inkscape:zoom="28.416667"
     inkscape:cx="11.982405"
     inkscape:cy="11.964809"
     inkscape:window-width="1886"
     inkscape:window-height="967"
     inkscape:window-x="0"
     inkscape:window-y="29"
     inkscape:window-maximized="1"
     inkscape:current-layer="svg7" />
  <defs
     id="defs3">
    <style
       id="current-color-scheme"
       type="text/css">
   .ColorScheme-Text { color:#eeeeec; } .ColorScheme-Highlight { color:#367bf0; } .ColorScheme-NeutralText { color:#ffcc44; } .ColorScheme-PositiveText { color:#3db47e; } .ColorScheme-NegativeText { color:#dd4747; }
  </style>
  </defs>
  <path
     style="fill:currentColor"
     class="ColorScheme-Text"
     d="M 0,0 V 7 H 8 V 0 Z M 9,1.078125 V 5 h 1 V 2.8347483 l 0.471316,-0.2899678 c 0.160757,0.056836 -0.153372,-0.069257 0,0 C 12.601007,3.5064683 13.995149,5.6324048 14,8 h 1 C 14.997,4.5227 12.4416,1.574925 9,1.078125 Z M 1,8 c 0.003,3.4773 2.5584,6.425075 6,6.921875 V 11 H 6 v 2.110591 0 C 5.7990455,13.039543 5.6036704,13.492461 5.4143519,13.402139 3.3492337,12.416887 2.0047633,10.324961 2,8 Z M 12.5,9 C 10.567003,9 9,10.567003 9,12.5 c 0.00112,0.755068 0.246401,1.489527 0.6992188,2.09375 l 0.7167972,-0.716797 c -0.270492,-0.405667 -0.4164553,-0.881576 -0.4199222,-1.369141 0,-1.380712 1.1192882,-2.5 2.5000002,-2.5 0.489828,7.83e-4 0.968635,0.145444 1.376953,0.416016 L 14.589844,9.7070312 C 13.984261,9.2523155 13.24753,9.0062818 12.490234,9.0058594 Z m 2.804688,1.398438 -0.0039,0.0078 -0.716797,0.716797 c 0.270491,0.405667 0.416455,0.881576 0.419922,1.369141 0,1.380712 -1.119288,2.5 -2.5,2.5 -0.489828,-7.83e-4 -0.968635,-0.145444 -1.376953,-0.416016 l -0.716797,0.716797 c 0.604223,0.452818 1.338682,0.698094 2.09375,0.699219 1.932997,0 3.5,-1.567003 3.5,-3.5 -0.0011,-0.755068 -0.246401,-1.489527 -0.699218,-2.09375 z"
     transform="translate(4,4)"
     id="path5"
     sodipodi:nodetypes="ccccccccccscccccccccsccccccccccccccccccccccc" />
</svg>

<svg xmlns="http://www.w3.org/2000/svg" width="24" height="24" viewBox="0 0 24 24">
 <defs>
  <style id="current-color-scheme" type="text/css">
   .ColorScheme-Text { color:#eeeeec; } .ColorScheme-Highlight { color:#367bf0; } .ColorScheme-NeutralText { color:#ffcc44; } .ColorScheme-PositiveText { color:#3db47e; } .ColorScheme-NegativeText { color:#dd4747; }
  </style>
 </defs>
 <path style="fill:currentColor" class="ColorScheme-Text" d="M 0 0 L 0 7 L 8 7 L 8 0 L 0 0 z M 9 1.078125 L 9 5 L 10 5 L 10 2.3554688 C 12.393 3.2015187 13.9948 5.4619 14 8 L 15 8 C 14.997 4.5227 12.4416 1.574925 9 1.078125 z M 1 8 C 1.003 11.4773 3.5584 14.425075 7 14.921875 L 7 11 L 6 11 L 6 13.644531 C 3.607 12.798481 2.0052 10.5381 2 8 L 1 8 z M 12.5 9 A 3.5 3.5 0 0 0 9 12.5 A 3.5 3.5 0 0 0 9.6992188 14.59375 L 10.416016 13.876953 A 2.5 2.5 0 0 1 9.9960938 12.507812 A 2.5 2.5 0 0 1 12.496094 10.007812 A 2.5 2.5 0 0 1 13.873047 10.423828 L 14.589844 9.7070312 A 3.5 3.5 0 0 0 12.490234 9.0058594 L 12.5 9 z M 15.304688 10.398438 L 15.300781 10.40625 L 14.583984 11.123047 A 2.5 2.5 0 0 1 15.003906 12.492188 A 2.5 2.5 0 0 1 12.503906 14.992188 A 2.5 2.5 0 0 1 11.126953 14.576172 L 10.410156 15.292969 A 3.5 3.5 0 0 0 12.503906 15.992188 A 3.5 3.5 0 0 0 16.003906 12.492188 A 3.5 3.5 0 0 0 15.304688 10.398438 z" transform="translate(4 4)"/>
</svg>
